svg/business/sofa_line.svg

<?xml version="1.0" encoding="UTF-8"?>
<svg width="24px" height="24px" viewBox="0 0 24 24" version="1.1" xmlns="http://www.w3.org/2000/svg" xmlns:xlink="http://www.w3.org/1999/xlink">
    <title>sofa_line</title>
    <g id="Icon" stroke="none" stroke-width="1" fill="none" fill-rule="evenodd">
        <g id="Business" transform="translate(0.000000, -480.000000)">
            <g id="sofa_line" transform="translate(0.000000, 480.000000)">
                <path d="M24,0 L24,24 L0,24 L0,0 L24,0 Z M12.5935,23.2578 L12.5819,23.2595 L12.5109,23.295 L12.4919,23.2987 L12.4767,23.295 L12.4057,23.2595 C12.3958,23.2564 12.387,23.259 12.3821,23.2649 L12.378,23.2758 L12.3609,23.7031 L12.3659,23.7235 L12.3769,23.7357 L12.4805,23.8097 L12.4953,23.8136 L12.5071,23.8097 L12.6107,23.7357 L12.6233,23.7197 L12.6267,23.7031 L12.6096,23.2758 C12.6076,23.2657 12.601,23.2593 12.5935,23.2578 Z M12.8584,23.1453 L12.8445,23.1473 L12.6598,23.2397 L12.6499,23.2499 L12.6472,23.2611 L12.6651,23.6906 L12.6699,23.7034 L12.6784,23.7105 L12.8793,23.8032 C12.8914,23.8069 12.9022,23.803 12.9078,23.7952 L12.9118,23.7812 L12.8777,23.1665 C12.8753,23.1546 12.8674,23.147 12.8584,23.1453 Z M12.143,23.1473 C12.1332,23.1424 12.1222,23.1453 12.1156,23.1526 L12.1099,23.1665 L12.0758,23.7812 C12.0751,23.7927 12.0828,23.8019 12.0926,23.8046 L12.1083,23.8032 L12.3092,23.7105 L12.3186,23.7024 L12.3225,23.6906 L12.3404,23.2611 L12.3372,23.2485 L12.3278,23.2397 L12.143,23.1473 Z" id="MingCute" fill-rule="nonzero"></path>
                <path d="M10,3 C7.23858,3 5,5.23858 5,8 L5,9.17071 C3.83481,9.58254 3,10.6938 3,12 L3,17 C3,18.1046 3.89543,19 5,19 L5,20 C5,20.5523 5.44772,21 6,21 C6.55228,21 7,20.5523 7,20 L7,19 L17,19 L17,20 C17,20.5523 17.4477,21 18,21 C18.5523,21 19,20.5523 19,20 L19,19 C20.1046,19 21,18.1046 21,17 L21,12 C21,10.6938 20.1652,9.58254 19,9.17071 L19,8 C19,5.23858 16.7614,3 14,3 L10,3 Z M17,9.17071 L17,8 C17,6.34315 15.6569,5 14,5 L10,5 C8.34315,5 7,6.34315 7,8 L7,9.17071 C8.16519,9.58254 9,10.6938 9,12 L9,13 L15,13 L15,12 C15,10.6938 15.8348,9.58254 17,9.17071 Z M5,12 C5,11.4477 5.44772,11 6,11 C6.55228,11 7,11.4477 7,12 L7,14 C7,14.5523 7.44772,15 8,15 L16,15 C16.5523,15 17,14.5523 17,14 L17,12 C17,11.4477 17.4477,11 18,11 C18.5523,11 19,11.4477 19,12 L19,17 L5,17 L5,12 Z" id="形状" fill="#09244B"></path>
            </g>
        </g>
    </g>
</svg>

<svg xmlns="http://www.w3.org/2000/svg" width="24" height="24"><g fill="none" fill-rule="evenodd"><path d="M24 0v24H0V0zM12.594 23.258l-.012.002-.071.035-.02.004-.014-.004-.071-.036c-.01-.003-.019 0-.024.006l-.004.01-.017.428.005.02.01.013.104.074.015.004.012-.004.104-.074.012-.016.004-.017-.017-.427c-.002-.01-.009-.017-.016-.018m.264-.113-.014.002-.184.093-.01.01-.003.011.018.43.005.012.008.008.201.092c.012.004.023 0 .029-.008l.004-.014-.034-.614c-.003-.012-.01-.02-.02-.022m-.715.002a.023.023 0 0 0-.027.006l-.006.014-.034.614c0 .012.007.02.017.024l.015-.002.201-.093.01-.008.003-.011.018-.43-.003-.012-.01-.01z"/><path fill="#09244B" d="M10 3a5 5 0 0 0-5 5v1.17A3.001 3.001 0 0 0 3 12v5a2 2 0 0 0 2 2v1a1 1 0 1 0 2 0v-1h10v1a1 1 0 1 0 2 0v-1a2 2 0 0 0 2-2v-5a3.001 3.001 0 0 0-2-2.83V8a5 5 0 0 0-5-5zm7 6.17V8a3 3 0 0 0-3-3h-4a3 3 0 0 0-3 3v1.17c1.165.413 2 1.524 2 2.83v1h6v-1c0-1.306.835-2.417 2-2.83M5 12a1 1 0 1 1 2 0v2a1 1 0 0 0 1 1h8a1 1 0 0 0 1-1v-2a1 1 0 1 1 2 0v5H5z"/></g></svg>
